X: 28
T:LA TOURTERELLE
M:3/4
L:1/8
Q:206
C:M.P.
R:valse
K:G
B2G2B2|d4B2|c4e2|d4G2|B2G2B2|d4B2|c4A2|1 B4G2:|2 G6|!
|:g2f2e2|e6|e2f2g2|d6|d2Bd Bd|e2ce ce|f2ef ef|1 g2B2B2:|2 g6||
